X:1
T:Will Your Anchor Hold
T:Will Your Anchor Hold
T:Kirkpatrick
C:Kirkpatrick
%%score 1 2 3
L:1/8
M:4/4
K:F
V:1 treble nm="Flute" snm="Fl."
V:2 treble transpose=-2 nm="B♭ Clarinet" snm="B♭ Cl."
V:3 treble transpose=-2 nm="B♭ Clarinet" snm="B♭ Cl."
V:1
 F>G | A2 F2 D2 G>G | F2 E2 F2 A>A | GG G2 c2 EF | E2 D2 C2 C>C | F2 A2 G2 C>C | G2 B2 A2 F>A | %7
 c2 c2 cBFG | A2 G2 F4 | c2 c>c c c2 c | d2 c2 c4 | A2 AA c2 c>A | F2 A2 G4 || cc c>c c2 A2 | %14
 B2 c2 d4 | ccAF C2 B>B | A2 G2 F2 z2 |] %17
V:2
[K:G] D>D | G2 D2 C2 E>E | D2 D2 D2 G>G | FF F2 F2 DE | D2 ^C2 D2 =C>C | D2 G2 F2 D>D | %6
 F2 A2 G2 D>G | G2 =F2 E2 EE | G2 F2 D4 | G2 G>G G G2 G | G2 G2 G4 | G2 GG B2 B>G | D2 D2 F4 || %13
 GG G>G B,2 D2 | E2 D2 G4 | ddBG D2 G>G | G2 F2 D2 z2 |] %17
V:3
[K:G] B,>C | D2 B,2 G,2 C>C | B,2 A,2 B,2 D>D | DD D2 A,2 A,B, | A,2 G,2 F,2 F,>F, | %5
 B,2 D2 D2 D>D | D2 D2 D2 B,>B, | B,2 B,2 G,2 CC | D2 C2 B,4 | B,2 B,>B, B, B,2 B, | C2 B,2 B,4 | %11
 D2 DD G,2 G,>G, | B,2 G,2 D4 || B,B, B,>B, G,2 =F,2 | C2 B,2 C4 | DDB,G, D2 E>E | D2 C2 B,2 z2 |] %17

